X:1
T:Waves on the Sea
M:4/4
L:1/8
K:A
 A,A,| C2 CE E2 CB,| A,4 z2 E2| F/2F/2 A3 A A2 F| E4 z2 E2| A2 A2 A2 F2|\
 E/2E/2 E2 C A,2 A,A,| C2 CE E2 CB,| A,4 z2 A,A,| C C2 E E2 EC|
M:2/4
 B,A, CB,|
M:4/4
 A,4 z2 EE| F A2 A A3.99999962500005/5.99999925000009 A3.99999962500005/5.99999925000009 A3.99999962500005/5.99999925000009- A2|\
 E4 z2 EF| A2 A2 A2 FE| F2 EC A,2 A,A,| C2 CE E2 CB,| A6||
